X: 98
T: Billy MacLeod's Testimonial
T: Reel, B Dorian
C: Carl MacKenzie
L: 1/16
M: 2/2
K: B Dorian
f2B2d2e2 f2a2g2a2| f2b2a2b2 a2g2f2e2| f2B2d2e2 f2a2g2a2| b2a2g2f2 e2A2c2e2| 
f2B2d2e2 f2a2g2a2| f2b2a2b2 a2g2f2e2| b2B2a2B2 g2B2f2B2| a2g2f2a2 e2d2c2A2|| 
B2B,2 B,1B,1B,2 B2c2d2e2| f2e2d2c2 B2c2d2B2| c2A2G2A2 E2A2C2A2| c2e2a2f2 e2c2A2c2| 
B2B,2 B,1B,1B,2 B2c2d2e2| f2e2d2c2 B2c2d2B2| e2a2g2a2 f2a2e2c2| f2d2e2c2 B8|| 
D: Carl MacKenzie, A Cape Breton Classic, CLM 1007
